X: 7342
T: Cliffs Of Moher, The
R: jig
M: 6/8
K: Gdorian
d|:gfg agf|dge fdc|B2G AGF|DEF G (3ABc|
dgg agf|dge fdc|B2G AGF|DEF G3:|
~d3 cAG|~d3 cAG|FGA cAG|FGA cAc|
~d3 cAG|~d3 cAG|FGA cAG|DEF G3|
~d3 cAG|~d3 cAG|FGA cAG|FGA cAc|
Add edd|cdd =Bdd|G=Bd D^FA|G=Bd f2 d||

